X: 4136
M: C|
L: 1/8
K: Ador
c |\
eAcA eAcA | eAcA BEEc |\
eAcA eAcA | BdcA BEE |:\
d |\
c2(cB) cAAd | c2(cA) BEEd |\
[1 c2cA B2Bc | ABcA BEE :|\
[2 c/c/c (cA) BcBc |
EA,CA, EA,CA, | EA,CA, EFGF |\
EA,CA, EA,CA, | B,CDE CA,A,E :|\


